X:1
T:To Be There
T:Ira David Sankey
T:To Be There
T:Public Domain
T:Public Domain
T:Public Domain
C:Ira David Sankey
Z:Public Domain
%%score ( 1 2 ) ( 3 4 )
L:1/8
M:4/4
K:Eb
V:1 treble 
V:2 treble 
V:3 bass 
V:4 bass 
V:1
 E[EG] | [GB]2 [GB]>[GB] [GB]2 [Ac]>[GB] | [Ge]6 [Ge][Bd] | [Ac]2 [Ac]>[Ac] ([Ac][ce]) [Bd]>[Ac] | %4
w: 1.~I have|of a land far a- way,|And its glo-|ries no tongue can * de- clare;|
w: 2.~There are|tastes of Heav- en be- low,|There are mo-|ments like joys of * the blest;|
w: 3.~In that|tide of glo- ry so fair,|In the gleam|of the riv- er * of life,|
w: 4.~There the|somed with Je- sus a- bide|In the shade|of the shel- ter- * ing fold;|
 [GB]6 [GB][GB] | [Ge]2 [Ge]>[Ge] (GF) [Ec]>[Ec] | [GB]6 [Ac][Ac] | [GB]2 [EG]E [DF]2 [DG]>[DF] | %8
w: But its beau-|ty hangs o- ver * the way,|with Je- sus|I long to be there. *|
w: But the splen-|dors no mor- tal * can know,|the land where|the wea- ry shall rest. To|
w: There are joys|that the faith- ful * shall share;|how sweet- ly|they rest from the strife! *|
w: Ev- er- more|by Im- man- u- * el’s side,|shall dwell in|the glo- ry un- told. *|
 E6 ||"^Refrain" [GB]>[GB] | [GB]6 [GB]>[GB] | [Ac]6 [Ae][Ac] | [GB]2 [GB]>[GB] [FB]2 [Ac][Ad] | %13
w: |||||
w: there,|be there,|And with Je-|sus, I long|to be there; To be there,|
w: |||||
w: |||||
 [Ge]6 [GB]>[GB] | [GB]6 [GB]>[GB] | (c4 e2) [Bd][Ac] | [GB]2 [EG]E [DF]2 [DG]>[DF] | E6 |] %18
w: |||||
w: to be there,|And with Je-|sus, * I long|be there. * * * *||
w: |||||
w: |||||
V:2
 E x | x8 | x8 | x8 | x8 | x4 d2 x2 | x8 | x3 E x4 | E6 || x2 | x8 | x8 | x8 | x8 | x8 | A6 x2 | %16
w: heard|||||And|||||||||||
w: fore-|||||Of||be|to|||||||to|
w: noon-|||||O|||||||||||
w: ran-|||||They|||||||||||
 x3 E x4 | E6 |] %18
w: ||
w: ||
w: ||
w: ||
V:3
 [E,G,][E,B,] | [E,E]2 [E,E]>[E,E] [E,E]2 [E,E]>[E,E] | [E,B,]6 [E,B,][G,E] | %3
w: ~ ~|~ ~ ~ ~ ~ ~|~ ~ ~|
 [A,E]2 [A,E]>[A,E] [A,E]2 [A,E]>[A,E] | [E,E]6 [E,B,][E,B,] | %5
w: ~ ~ ~ ~ ~ ~|~ ~ ~|
 [C,C]2 [C,C]>[C,C] [G,=B,]2 [A,C]>[A,C] | [E,E]6 [A,,E][A,,E] | %7
w: ~ ~ ~ ~ ~ ~|~ ~ ~|
 [B,,E]2 [B,,B,][B,,G,] [B,,A,]2 [B,,B,]>[B,,A,] | [E,G,]6 || z2 | z2 [E,E]>[E,E] [E,E]2 z2 | %11
w: ~ ~ ~ ~ ~ ~|~||To be there,|
 z2 [A,E][A,E] [A,E]2 [A,C][A,E] | [B,E]2 [B,E]>[B,E] [B,D]2 B,B, | %13
w: to be there ~ ~|~ ~ ~ ~ ~ ~|
 [E,B,]2 [E,B,][E,B,] [E,B,]2 z2 | z2 [E,E]>[E,E] [E,E]2 z2 | z2 [A,E]>[A,E] [F,A,]2 [A,,C][A,,C] | %16
w: be there; To be|there, to be|there, * * * *|
 [B,,E]2 [B,,B,][B,,G,] [B,,A,]2 [B,,B,]>[B,,A,] | [E,G,]6 |] %18
w: ||
V:4
 x2 | x8 | x8 | x8 | x8 | x8 | x8 | x8 | x6 || x2 | x8 | x8 | x6 B,B, | x8 | x8 | x8 | x8 | x6 |] %18
w: ||||||||||||~ to||||||

